X:120
T: Port an Achr\'eidh
S: "Ceol Rince na hEireann" 1/59
Z: B.Black
L: 1/8
M: 6/8
R: jig
K: Dmix
A/G/|: F2D EFG|A2B c2A|dcA Bcd|edc A2G|
F2D EFG|A2B c2A|dcA G2E|DED D3 :|
dcA Bcd|efg e2f|dcA Bcd|edc A2B|
dcA Bcd|efg e2f|dcA G2E|DED D3 :|
